X:1
T:Title
%%score ( 1 2 ) ( 3 4 )
L:1/8
Q:1/4=68
M:6/8
K:F
V:1 treble nm="Strings 1, Soprano"
V:2 treble 
V:3 bass nm="Strings 1, Bass"
V:4 bass 
V:1
 [Fc]2 [FA] [Fc]2 [FA]/[FG]/ | [CF]2 [CG] [CF]3 | [Ac]2 [FA] [Ac]2 [FA]/[FG]/ | [CF]2 [FA] [EG]3 | %4
w: 1.~Eve ry~ hour~ of~ the~|pass ing~ day~|Let~ me~ la bor,~ *|Lord,~ for~ Thee;~|
 [Fc]2 [FA] [Fc]2 [FA]/[FG]/ | [CF]2 [CG] [CF]3 | z3 z2 .F | [FA]2 [CG] [CF]3 | %8
w: While~ one~ soul~ in~ the~|dark ness~ roams,~|er~|i dle~ be.~|
 [Ac]2 [FA] c2- [Ac-] | [Ac-]2 [Gc-] [Fc]3 | z3 A3- | A6 | [Ac]2 [FA] [Ac]2 F/-[FG]/ | %13
w: |||||
 [CF]2 [FA] [EG]3 | [Ac]2 [FA] c2- [Ac-] | [Ac-]2 [Gc-] [Fc]3 | z3 A3- | A6 | %18
w: |||||
 [B,D]2 [B,F] [A,C]2 [CF]/[CG]/ | [FA]2 [CG] [CF]3 |] %20
w: ||
V:2
 x6 | x6 | x6 | x6 | x6 | x6 | [B,D]2 [B,F] [A,C]2 C/-[CG]/ | x6 | z3 .A3 | x6 | [FA]2 [CF] F2 F | %11
w: ||||||* me~ * * *|||||
 F2 F F3 | z3 z2 .A | x6 | z3 .A3 | x6 | [FA]2 [CF] F2 F | F2 F F3 | x6 | x6 |] %20
w: |||||||||
V:3
 [F,A,]2 [F,C] [F,A,]2 [F,C]/[F,B,]/ | [F,A,]2 [F,B,] [F,A,]3 | [F,C]2 [F,C] [F,C]2 [F,C]/[F,B,]/ | %3
 [F,A,]2 [F,C] [C,C]3 | [F,A,]2 [F,C] [F,A,]2 [F,C]/[F,B,]/ | [F,A,]2 [F,B,] [F,A,]3 | z3 z2 .A, | %7
 [C,C]2 [C,B,] [F,A,]3 | z3 z2 [F,C] | [F,C]2 [C,B,] [F,A,]3 | z3 z2 [F,C] | [F,C]2 [F,C] [F,C]3 | %12
 [F,C]2 [F,C] [F,C]2 C/B,/ | [F,A,]2 [F,C] [C,C]3 | z3 z2 [F,C] | [F,C]2 [C,B,] [F,A,]3 | %16
 z3 z2 [F,C] | [F,C]2 [F,C] [F,C]3 | [B,,B,]2 [D,B,] F,2 [F,A,]/[F,B,]/ | %19
 [C,C]2 [C,B,] [F,,F,A,]3 |] %20
V:4
 x6 | x6 | x6 | x6 | x6 | x6 | [B,,B,]2 [D,B,] F,2 F,/-[F,B,]/ | x6 | x6 | x6 | x6 | x6 | %12
 z3 z2 F, | x6 | x6 | x6 | x6 | x6 | x6 | x6 |] %20

